src/OnboardingSPA/static/icons/site-features/filter.svg

<svg fill="none" height="23" viewBox="0 0 16 23" width="16" xmlns="http://www.w3.org/2000/svg" xmlns:xlink="http://www.w3.org/1999/xlink"><clipPath id="a"><path d="m0 0h16v23h-16z"/></clipPath><g clip-path="url(#a)" stroke="#000" stroke-linecap="square" stroke-width="1.6"><path clip-rule="evenodd" d="m15.2 8.2898-5.40001 5.6006v5.6007l-3.6 1.8669v-7.4676l-5.400002-5.6006v-7.467534h14.400012z" fill-rule="evenodd"/><path d="m.799988 4.92969h14.400012"/></g></svg>

<svg width="16" height="23" viewBox="0 0 16 23" fill="none" xmlns="http://www.w3.org/2000/svg">
<g clip-path="url(#clip0_35371_6775)">
<path fill-rule="evenodd" clip-rule="evenodd" d="M15.2 8.2898L9.79999 13.8904V19.4911L6.19999 21.358V13.8904L0.799988 8.2898V0.822266H15.2V8.2898Z" stroke="black" stroke-width="1.6" stroke-linecap="square"/>
<path d="M0.799988 4.92969H15.2" stroke="black" stroke-width="1.6" stroke-linecap="square"/>
</g>
<defs>
<clipPath id="clip0_35371_6775">
<rect width="16" height="23" fill="black"/>
</clipPath>
</defs>
</svg>
